packages/symbols/svgs/solid/bars-solid.svg

<svg width="16" height="16" viewBox="0 0 16 16" xmlns="http://www.w3.org/2000/svg"><path fill-rule="evenodd" clip-rule="evenodd" d="M15 1H1c-.6 0-1 .4-1 1s.4 1 1 1h14c.6 0 1-.4 1-1s-.4-1-1-1Zm0 6H1c-.6 0-1 .4-1 1s.4 1 1 1h14c.6 0 1-.4 1-1s-.4-1-1-1ZM1 13h14c.6 0 1 .4 1 1s-.4 1-1 1H1c-.6 0-1-.4-1-1s.4-1 1-1Z"/></svg>

<svg width="16" height="16" viewBox="0 0 16 16" fill="none" xmlns="http://www.w3.org/2000/svg">
<path fill-rule="evenodd" clip-rule="evenodd" d="M15 1H1C0.4 1 0 1.4 0 2C0 2.6 0.4 3 1 3H15C15.6 3 16 2.6 16 2C16 1.4 15.6 1 15 1ZM15 7H1C0.4 7 0 7.4 0 8C0 8.6 0.4 9 1 9H15C15.6 9 16 8.6 16 8C16 7.4 15.6 7 15 7ZM1 13H15C15.6 13 16 13.4 16 14C16 14.6 15.6 15 15 15H1C0.4 15 0 14.6 0 14C0 13.4 0.4 13 1 13Z" fill="black"/>
</svg>
